Numix-GalliumOS/48/actions/go-last.svg

<svg width="48" xmlns="http://www.w3.org/2000/svg" height="48" viewBox="0 0 48 48" xmlns:xlink="http://www.w3.org/1999/xlink">
<g style="fill-rule:evenodd">
<path style="fill:#268bd2" d="M 44 24 C 44 12.957031 35.042969 4 24 4 C 12.957031 4 4 12.957031 4 24 C 4 35.042969 12.957031 44 24 44 C 35.042969 44 44 35.042969 44 24 Z "/>
<path style="fill:#fff;fill-opacity:.902" d="M 36 40 C 42 36 44 30.078125 44 24 C 44 17.933594 42 12 36 8 "/>
</g>
<path style="fill:#fff;fill-opacity:.902" d="M 36 24.007812 C 36 23.394531 35.738281 22.8125 35.3125 22.382812 L 27.875 14.695312 C 27.472656 14.269531 26.898438 14.023438 26.3125 14.007812 C 25.382812 13.976562 24.550781 14.503906 24.1875 15.382812 C 23.824219 16.257812 24.019531 17.285156 24.6875 17.945312 L 28.625 22.007812 L 12 22.007812 L 12 26.007812 L 28.625 26.007812 L 24.6875 30.070312 C 23.8125 30.96875 23.8125 32.417969 24.6875 33.320312 C 25.5625 34.21875 27 34.21875 27.875 33.320312 L 35.3125 25.632812 C 35.738281 25.199219 36 24.617188 36 24.007812 Z "/>
</svg>

<svg xmlns="http://www.w3.org/2000/svg" viewBox="0 0 48 48">
 <g transform="matrix(0,-1,1,0,0,48)" style="fill-rule:evenodd">
  <path d="m 24 4 c -11.04 0 -20 8.957 -20 20 0 4.508 1.511 8.655 4.03 12 7.971 2 21.971 2 31.941 0 2.518 -3.345 4.03 -7.492 4.03 -12 0 -11.04 -8.957 -20 -20 -20" style="fill:#268bd2"/>
  <path d="m 8 36 c 4 6 9.922 8 16 8 6.066 0 12 -2 16 -8" style="fill:#eaf4fb;fill-opacity:1"/>
 </g>
 <path d="m 36 24.01 c 0 -0.613 -0.262 -1.195 -0.688 -1.625 l -7.438 -7.688 c -0.402 -0.426 -0.977 -0.672 -1.563 -0.688 -0.93 -0.031 -1.762 0.496 -2.125 1.375 -0.363 0.875 -0.168 1.902 0.5 2.563 l 3.938 4.063 -16.625 0 0 4 16.625 0 -3.938 4.063 c -0.875 0.898 -0.875 2.348 0 3.25 0.875 0.898 2.313 0.898 3.188 0 l 7.438 -7.688 c 0.426 -0.434 0.688 -1.016 0.688 -1.625 z" style="fill:#eaf4fb;fill-opacity:1"/>
</svg>
